img/linkedin-icon.svg

<svg width="38" height="38" viewBox="0 0 38 38" fill="none" xmlns="http://www.w3.org/2000/svg">
<mask id="mask0" mask-type="alpha" maskUnits="userSpaceOnUse" x="0" y="0" width="38" height="38">
<circle cx="19" cy="19" r="19" fill="#C4C4C4"/>
</mask>
<g mask="url(#mask0)">
<path d="M31.2032 37.3494C23.0759 38.2169 14.9241 38.2169 6.79681 37.3494C3.55612 37.0036 0.996445 34.4439 0.650574 31.2029C-0.216858 23.0757 -0.216858 14.9241 0.650574 6.79681C0.996445 3.55612 3.55612 0.996445 6.79681 0.650574C14.9241 -0.216858 23.0757 -0.216858 31.2029 0.650574C34.4439 0.996445 37.0036 3.55612 37.3494 6.79681C38.2169 14.9241 38.2169 23.0757 37.3494 31.2029C37.0036 34.4439 34.4442 37.0036 31.2032 37.3494Z" fill="url(#paint0_linear)"/>
<path d="M34.6571 29.6615L13.987 8.99118C13.5254 8.3888 12.7991 8 11.9817 8C10.5873 8 9.45679 9.13023 9.45679 10.5246C9.45679 11.3423 9.84583 12.0686 10.4482 12.53L31.0465 33.1284C32.7114 32.5745 34.0383 31.2952 34.6571 29.6615Z" fill="url(#paint1_linear)"/>
<path d="M14.1024 14.7061H9.86084V27.8548L21 38.5C25.6485 38.6759 26.3579 36.4956 31 36C31.8116 35.9135 31.3933 33.0556 32.0698 32.6734L14.1024 14.7061Z" fill="url(#paint2_linear)"/>
<path d="M28.5072 15.8072C27.7313 14.9566 26.6142 14.4229 25.3726 14.4229C23.4085 14.4229 22.141 15.1127 21.3866 15.7532L20.5555 14.7058H16.6472V27.8546L28 38.5C30.3807 38.4225 30.6225 36.2537 33 36C35.7319 35.7085 36.2085 32.2316 36.5 29.5C36.695 27.6736 38.4091 27.3284 38.5 25.5L28.5072 15.8072Z" fill="url(#paint3_linear)"/>
<path d="M9.86084 14.7061H14.1022V27.8548H9.86084V14.7061Z" fill="white"/>
<path d="M25.3726 14.4229C22.2644 14.4229 20.8991 16.1503 20.5555 16.6762V14.7058H16.6472V27.8546H20.8888V21.2499C20.8888 19.3414 21.7673 17.8568 23.4337 17.8568C25.0999 17.8568 25.3726 19.7047 25.3726 21.9772V27.8546H29.6142V18.6644C29.6142 16.3219 27.7151 14.4229 25.3726 14.4229Z" fill="white"/>
<path d="M14.5063 10.5249C14.5063 11.9193 13.376 13.0495 11.9817 13.0495C10.5873 13.0495 9.45679 11.9193 9.45679 10.5249C9.45679 9.13047 10.5873 8 11.9817 8C13.376 8 14.5063 9.13047 14.5063 10.5249Z" fill="white"/>
</g>
<defs>
<linearGradient id="paint0_linear" x1="7.5" y1="3.5" x2="32" y2="33" gradientUnits="userSpaceOnUse">
<stop stop-color="#0583C5"/>
<stop offset="1" stop-color="#0066B2"/>
</linearGradient>
<linearGradient id="paint1_linear" x1="20.4961" y1="19.0392" x2="8.51979" y2="7.06296" gradientUnits="userSpaceOnUse">
<stop stop-color="#0066B2" stop-opacity="0"/>
<stop offset="1" stop-color="#07485E"/>
</linearGradient>
<linearGradient id="paint2_linear" x1="27.5275" y1="30.1662" x2="3.41043" y2="18.8613" gradientUnits="userSpaceOnUse">
<stop stop-color="#0066B2" stop-opacity="0"/>
<stop offset="1" stop-color="#07485E"/>
</linearGradient>
<linearGradient id="paint3_linear" x1="33.3943" y1="32.6448" x2="16.5933" y2="15.8438" gradientUnits="userSpaceOnUse">
<stop stop-color="#0066B2" stop-opacity="0"/>
<stop offset="1" stop-color="#07485E"/>
</linearGradient>
</defs>
</svg>

<svg width="38" height="38" fill="none" xmlns="http://www.w3.org/2000/svg"><mask id="mask0" maskUnits="userSpaceOnUse" x="0" y="0" width="38" height="38"><circle cx="19" cy="19" r="19" fill="#C4C4C4"/></mask><g mask="url(#mask0)"><path d="M31.203 37.35a114.83 114.83 0 01-24.406 0A6.92 6.92 0 01.65 31.202a114.774 114.774 0 010-24.406A6.92 6.92 0 016.797.65a114.774 114.774 0 0124.406 0 6.92 6.92 0 016.146 6.146c.868 8.127.868 16.279 0 24.406a6.919 6.919 0 01-6.146 6.146z" fill="url(#paint0_linear)"/><path d="M34.657 29.662l-20.67-20.67a2.525 2.525 0 10-3.539 3.539l20.599 20.597a5.837 5.837 0 003.61-3.466z" fill="url(#paint1_linear)"/><path d="M14.102 14.706H9.861v13.149L21 38.5c4.648.176 5.358-2.004 10-2.5.812-.087.393-2.944 1.07-3.327L14.102 14.706z" fill="url(#paint2_linear)"/><path d="M28.507 15.807a4.23 4.23 0 00-3.134-1.384c-1.965 0-3.232.69-3.986 1.33l-.832-1.047h-3.908v13.149L28 38.5c2.38-.078 2.622-2.246 5-2.5 2.732-.291 3.209-3.768 3.5-6.5.195-1.826 1.91-2.172 2-4l-9.993-9.693z" fill="url(#paint3_linear)"/><path d="M9.86 14.706h4.242v13.149H9.861V14.706zm15.513-.283c-3.109 0-4.474 1.727-4.818 2.253v-1.97h-3.908v13.149h4.242V21.25c0-1.909.878-3.393 2.545-3.393 1.666 0 1.939 1.848 1.939 4.12v5.878h4.241v-9.19a4.242 4.242 0 00-4.241-4.242zm-10.867-3.898a2.525 2.525 0 11-5.049 0 2.525 2.525 0 015.05 0z" fill="#fff"/></g><defs><linearGradient id="paint0_linear" x1="7.5" y1="3.5" x2="32" y2="33" gradientUnits="userSpaceOnUse"><stop stop-color="#0583C5"/><stop offset="1" stop-color="#0066B2"/></linearGradient><linearGradient id="paint1_linear" x1="20.496" y1="19.039" x2="8.52" y2="7.063" gradientUnits="userSpaceOnUse"><stop stop-color="#0066B2" stop-opacity="0"/><stop offset="1" stop-color="#07485E"/></linearGradient><linearGradient id="paint2_linear" x1="27.527" y1="30.166" x2="3.41" y2="18.861" gradientUnits="userSpaceOnUse"><stop stop-color="#0066B2" stop-opacity="0"/><stop offset="1" stop-color="#07485E"/></linearGradient><linearGradient id="paint3_linear" x1="33.394" y1="32.645" x2="16.593" y2="15.844" gradientUnits="userSpaceOnUse"><stop stop-color="#0066B2" stop-opacity="0"/><stop offset="1" stop-color="#07485E"/></linearGradient></defs></svg>
